src/48/apps/cs-notifications.svg

<?xml version="1.0" encoding="UTF-8" standalone="no"?>
<svg
   xmlns:dc="http://purl.org/dc/elements/1.1/"
   xmlns:cc="http://creativecommons.org/ns#"
   xmlns:rdf="http://www.w3.org/1999/02/22-rdf-syntax-ns#"
   xmlns:svg="http://www.w3.org/2000/svg"
   xmlns="http://www.w3.org/2000/svg"
   xmlns:sodipodi="http://sodipodi.sourceforge.net/DTD/sodipodi-0.dtd"
   xmlns:inkscape="http://www.inkscape.org/namespaces/inkscape"
   height="48"
   width="48"
   version="1.1"
   id="svg2"
   inkscape:version="0.92.4 (5da689c313, 2019-01-14)"
   sodipodi:docname="csd-print-notifications.svg">
  <metadata
     id="metadata94">
    <rdf:RDF>
      <cc:Work
         rdf:about="">
        <dc:format>image/svg+xml</dc:format>
        <dc:type
           rdf:resource="http://purl.org/dc/dcmitype/StillImage" />
        <dc:title />
      </cc:Work>
    </rdf:RDF>
  </metadata>
  <sodipodi:namedview
     pagecolor="#ffffff"
     bordercolor="#666666"
     borderopacity="1"
     objecttolerance="10"
     gridtolerance="10"
     guidetolerance="10"
     inkscape:pageopacity="0"
     inkscape:pageshadow="2"
     inkscape:window-width="1366"
     inkscape:window-height="697"
     id="namedview92"
     showgrid="true"
     inkscape:snap-center="true"
     inkscape:snap-object-midpoints="true"
     inkscape:zoom="3.4766084"
     inkscape:cx="-24.692503"
     inkscape:cy="17.642577"
     inkscape:window-x="0"
     inkscape:window-y="0"
     inkscape:window-maximized="1"
     inkscape:current-layer="svg2"
     inkscape:snap-bbox="true"
     inkscape:bbox-nodes="true">
    <inkscape:grid
       type="xygrid"
       id="grid817" />
  </sodipodi:namedview>
  <defs
     id="defs4" />
  <g
     transform="translate(-3.5762787e-7,-14.999844)"
     inkscape:label="Layer 1"
     id="layer1-6">
    <path
       sodipodi:nodetypes="sssscccsssss"
       inkscape:connector-curvature="0"
       id="rect4203"
       d="m 9.7778895,25.999472 c -0.98489,0 -1.777779,0.759423 -1.777779,1.702744 v 23.589511 c 0,0.94332 0.7928898,1.702744 1.777779,1.702744 H 29.777778 l 3.555555,3.405489 3.555556,-3.405489 h 5.333333 C 43.207111,52.994471 44,52.235047 44,51.291727 V 27.702216 c 0,-0.943321 -0.792889,-1.702744 -1.777778,-1.702744 z"
       style="display:inline;opacity:1;fill:#f5f5f5;fill-opacity:1;stroke:none;enable-background:new" />
    <path
       inkscape:connector-curvature="0"
       id="rect4203-6"
       d="M 9.779297,24.999844 C 8.280357,24.999844 7,26.199295 7,27.702969 v 23.589844 c 0,1.503673 1.280357,2.701171 2.779297,2.701171 h 19.597656 l 3.957031,3.791016 3.957031,-3.791016 h 4.931641 C 43.721595,53.993984 45,52.796487 45,51.292813 V 27.702969 c 0,-1.503675 -1.278406,-2.703125 -2.777344,-2.703125 z m 0,1 H 42.222656 C 43.207544,25.999844 44,26.759648 44,27.702969 v 23.589844 c 0,0.943319 -0.792456,1.701171 -1.777344,1.701171 h -5.333984 l -3.554688,3.40625 -3.554687,-3.40625 h -20 C 8.7944079,52.993984 8,52.236132 8,51.292813 V 27.702969 c 0,-0.943321 0.794407,-1.703125 1.779297,-1.703125 z"
       style="color:#000000;font-style:normal;font-variant:normal;font-weight:normal;font-stretch:normal;font-size:medium;line-height:normal;font-family:sans-serif;text-indent:0;text-align:start;text-decoration:none;text-decoration-line:none;text-decoration-style:solid;text-decoration-color:#000000;letter-spacing:normal;word-spacing:normal;text-transform:none;writing-mode:lr-tb;direction:ltr;baseline-shift:baseline;text-anchor:start;white-space:normal;clip-rule:nonzero;display:inline;overflow:visible;visibility:visible;opacity:1;isolation:auto;mix-blend-mode:normal;color-interpolation:sRGB;color-interpolation-filters:linearRGB;solid-color:#000000;solid-opacity:1;fill:#4f6698;fill-opacity:0.26666667;fill-rule:nonzero;stroke:none;stroke-width:2;stroke-linecap:butt;stroke-linejoin:miter;stroke-miterlimit:4;stroke-dasharray:none;stroke-dashoffset:0;stroke-opacity:1;color-rendering:auto;image-rendering:auto;shape-rendering:auto;text-rendering:auto;enable-background:new" />
    <ellipse
       ry="7.8999991"
       rx="7.8999996"
       cy="27.499844"
       cx="10.5"
       id="path4172"
       style="opacity:1;fill:#ff5656;fill-opacity:1;stroke:#ff5656;stroke-width:1.20000005;stroke-linecap:butt;stroke-linejoin:miter;stroke-miterlimit:4;stroke-dasharray:none;stroke-dashoffset:0;stroke-opacity:1" />
    <g
       transform="matrix(0.75,0,0,0.75,12.399665,25.499844)"
       id="text4174"
       style="font-style:normal;font-weight:bold;font-size:15px;line-height:125%;font-family:Sans;-inkscape-font-specification:'Sans Bold';letter-spacing:0px;word-spacing:0px;fill:#ffffff;fill-opacity:1;stroke:none;stroke-width:1px;stroke-linecap:butt;stroke-linejoin:miter;stroke-opacity:1">
      <path
         id="path4168"
         style="font-style:normal;font-variant:normal;font-weight:bold;font-stretch:normal;font-family:'Roboto Condensed';-inkscape-font-specification:'Roboto Condensed,  Bold'"
         d="m -1.3333337,8.0060222 h -2.080078 v -8.14453103 l -2.028808,0.783691 V -1.0833328 l 3.88916,-1.589356 h 0.219726 z"
         inkscape:connector-curvature="0" />
    </g>
  </g>
</svg>

<svg xmlns="http://www.w3.org/2000/svg" height="48" width="48"><g transform="translate(0 -15)"><path d="M9.778 26C8.793 26 8 26.758 8 27.701v23.59c0 .943.793 1.702 1.778 1.702h20l3.555 3.406 3.556-3.406h5.333c.985 0 1.778-.759 1.778-1.702v-23.59C44 26.76 43.207 26 42.222 26z" fill="#f5f5f5"/><path d="M9.78 25C8.28 25 7 26.2 7 27.703v23.59c0 1.503 1.28 2.701 2.78 2.701h19.597l3.957 3.791 3.957-3.791h4.932c1.499 0 2.777-1.198 2.777-2.701v-23.59C45 26.199 43.722 25 42.223 25zm0 1h32.443c.985 0 1.777.76 1.777 1.703v23.59c0 .943-.792 1.701-1.777 1.701h-5.334L33.334 56.4l-3.555-3.406h-20c-.985 0-1.779-.758-1.779-1.701v-23.59C8 26.76 8.794 26 9.78 26z" style="line-height:normal;text-indent:0;text-align:start;text-decoration-line:none;text-decoration-style:solid;text-decoration-color:#000;text-transform:none;white-space:normal;isolation:auto;mix-blend-mode:normal;solid-color:#000;solid-opacity:1" color="#000" font-weight="400" font-family="sans-serif" overflow="visible" fill="#4f6698" fill-opacity=".267"/><ellipse ry="7.9" rx="7.9" cy="27.5" cx="10.5" fill="#ff5656" stroke="#ff5656" stroke-width="1.2"/><g style="line-height:125%;-inkscape-font-specification:'Sans Bold'"><path style="-inkscape-font-specification:'Roboto Condensed, Bold'" d="M11.4 31.504H9.84v-6.108l-1.522.588v-1.297l2.917-1.192h.165z" font-family="Roboto Condensed" font-weight="700" font-size="15" letter-spacing="0" word-spacing="0" fill="#fff"/></g></g></svg>
